X: 104
T: Russ Allen's Breakdown
R: Polka
M: 4/4
L: 1/8
Q: 190
K: D
(3ABc|"D"d2d2"A"cdec|"D"d2d2"A"cdec|"D"defg"Bm"a2f2|"Em"gfed"A"c2A2|"D"d2d2"A"cdec|
"D"d2d2"A"cdec|"D"defga2d2|"A"cdec"D"d2:||: fg|"D"aba^ga2fg|"D"aba^ga2fa|
"G"g2eg"D"f2df|"Em"edcd "A"e2fg|"D"aba^g a2fg|aba^ga2f2|"Em"g2eg "D"f2df|"A7"c2e2"D"d2:|]

